X:1
T:[ID 1-39]
T:[ID 1-39]
T:Bezeichnung standardisiert: Menuett Menuet
T:Urheber unbekannt Erstbeleg: vor 1767 (Datum in der schriftlichen Quelle) Datum in der hier transkribierten schriftlichen Quelle: 1767
C:Urheber unbekannt
C:Erstbeleg: vor 1767 (Datum in der schriftlichen Quelle)
C:Datum in der hier transkribierten schriftlichen Quelle: 1767
L:1/8
M:3/4
K:D
V:1 treble 
V:1
 d4 f2 | edcB A2 | e4 g2 | fedc d2 | f2 a^g a2 | e2 a^g a2 | BdcBA^G | A6 :: d4 =c2 | BGDB, G,2 | %10
 e4 d2 | cAEC A,2 |"^O)" a4 fa | g2 eg f2 |"^O)" a4 fa | g2 eg f2 | gefdec | d6 :| %18

